X:1
T:Schwanengesang
T:Die Taubenpost
T:14. Die Taubenpost
T:Franz Schubert
T:Schwanengesang (D.957)
T:Johann Gabriel Seidl
T:OpenScore (CC0)
T:OpenScore (CC0)
T:OpenScore (CC0)
T:OpenScore (CC0)
C:Franz Schubert
Z:Johann Gabriel Seidl
Z:OpenScore (CC0)
%%score 1 { ( 2 4 ) | 3 }
L:1/8
Q:1/4=130
M:2/2
K:G
V:1 treble nm="Voice"
V:2 treble nm="Piano"
V:4 treble 
V:3 bass 
V:1
"^Ziemlich langsam" z8 | z8 | z8 | z8 | z4 z2!p! B2 | B2 B B d2 d d | c2 B2 A2 z A | %7
w: ||||Ich|hab' ei- ne Brief- taub' in|mei- nem Sold, die|
 A2 A A c2 c c | B4 z2 z B | B3 B d3 d | c2 B2 A2 z A | A3 A c2 c2 | B6 z2 | z8 | z4 z2 B2 | %15
w: ist gar er- ge- ben und|treu; sie|nimmt mir nie das|Ziel zu kurz, und|fliegt auch nie vor-|bei.||Ich|
 B3 A G2 F2 | d3 B G2 G2 | B2 B2 d2 d d | A4 z2 A2 | B3 A e2 d2 | d3 B G2 z2 | B2 B B d2 d2 | %22
w: sen- de sie viel|tau- send mal auf|Kund- schaft täg- lich hin-|aus, vor-|bei an man- chem|lie- ben Ort,|bis zu der Lieb- sten|
 B4 z4 | B2 B B d2 d2 | G4 z4 | z8 | z8 | z8 | z4 z2!p! B2 | A2 A A d3 d |{_Bc} _BA B c d2 z d | %31
w: Haus,|bis zu der Lieb- sten|Haus.||||Dort|schaut sie zum Fen- ster|heim- * lich hin- ein, be-|
 ^c2 c c e2 ec | d4 z2 A2 | A3 A d3 =c | c=B BA B2 z d | ^c3 c e2 ec | d4 z2 d2 | d3 d =c2 _B A | %38
w: lauscht ih- ren Blick und *|Schritt, gibt|mei- ne Grü- sse|scher- * zend * ab, und|nimmt die ih- ren *|mit. Kein|Brief- chen brauch' ich zu|
 _B3 =F F2 B2 | _e2 e e d2 _B2 | c6 z2 |!mp! d2 c c g2 =f2 | =f3 d _B2 z d | d3 d =f2 f2 | %44
w: schrei- ben mehr, die|Thrä- ne selbst geb' ich|ihr,|o, sie  ver- trägt sie|si- cher nicht, gar|ei- frig dient sie|
 d4 z2!p! g2 | d3 d =f2 f2 | _B4 z4 | z8 | z8 | z8 | z4 z2 z!p! A | B3 B d3 d | c2 B B A2 z2 | %53
w: mir, gar|ei- frig dient sie|mir.||||Bei|Tag, bei Nacht, im|Wa- chen, im Traum,|
 A2 A A c2 c2 | B4 z4 | B2 B B d3 d | c2 B2 A2 z2 | A2 A A c3 c | B4 z4 | z8 | z4 z2!p! B2 | %61
w: ihr gilt das Al- les|gleich,|wenn sie nur wan- dern,|wan- dern kann,|dann ist sie ü- ber-|reich.||Sie|
 B3 A c2 F2 | G3 A B2 z B | B3 B d2 d2 | A4 z2 A2 | B3 A e2 d2 | d3 B G2 z2 | B2 B B d2 d2 | %68
w: wird nicht müd', sie|wird nicht matt, der|Weg ist stets ihr|neu, sie|braucht nicht Lock- ung,|braucht nicht Lohn,|die Taub' ist so mir|
 B4 z2!pp! g2 | B3 B d2 d2 | G4 z2 G2 | A2 c B A3 A | B2 d c B3 B | c2 c c =f2 f f | e6 z2 | %75
w: treu, die|Taub' ist so mir|treu. D'rum|heg' ich sie auch so|treu an der Brust, ver-|si- chert des schön- sten Ge-|winns;|
 z4 z2 z!p! e | e4 z2 B2 | d2 ^c2 z4 | z4 B3 d | ^c4 z4 | z4 e3 =f | e6 d=c | c3 B d2 d2 | %83
w: sie|heisst: die|Sehn- sucht, |kennt ihr|sie?|kennt ihr|sie? die *|Bo- tin treu- en|
 B4 z2!p! g2 | g3 B d2 d2 | G4 z2 G2 | A2 c B A3 A | B2 d c B3 B | c2 c c d2 d d | _e6 z2 | %90
w: Sinn's, die|Bo- tin treu- en|Sinn's. Drum|heg' ich sie auch so|treu an der Brust, ver-|si- chert des schön- sten Ge-|winns;|
 z4 z2 z!p! _e | d4 z2 A2 | c2 =B2 z4 | z4 A3 c | B4 z4 | z4 e3 =f | e6!>(! dc | c3 B d2 d2 | %98
w: sie|heisst: die|Sehn- sucht,|kennt ihr|sie?|kennt ihr|sie? die *|Bo- tin treu- en|
 B4 z2 g2 | g3 B e3 d!>)! |!pp! G4 z4 | z8 | z8 | z8 | z8 |] %105
w: Sinn's, die|Bo- tin treu- en|Sinn's.|||||
V:2
 z [DGB]2 [DGB] .[DGd]2 .[DGd]2 | z [DFc]2 [DFc] .[DFcd]2 .[DFcd]2 | %2
 z [DGB]2 [DGB] .[Gdg]2 .[Gdg]2 | z [DFA]2 [DFA] [DGB]2 [DGB]2 | z [FAd]2 [FAd] [DGB]4 | %5
 z d2 d (d>ed) z | [Acd] z [GBd] z [FAd]4 | z e2 e (d>ed) z | z d2 d!<(! (d>!p!e!<)!!>(!df)!>)! | %9
!pp! g d2 d (d>ed) z | [Acd] z [GBd] z [FAd]4 | z e2 e (e>fe) z | z ^d2 d!pp!!<(! (f>gf) z | %13
 z!<)!!mp!!>(! g2 g (b>e'^a)!>)!!pp! z | z [^df]2 [df] [dfb]4 | z [=DFA]2 [DFA] ([FAd]2 [DFA]) z | %16
 z [DGB]2 [DGB] ([GBd]2 [DGB]) z | z [GBd]2 [GBd] ([Gdg]2 [GB]) z | z [FA]2 [FA] [FAd]3 [Aa] | %19
 ([Bb]3 [Aa] [ee']2 [dd']2) | ([dd']3 [Bb] [Gg]2) z2 | z [dgb]2 [dgb] [dgad'] z [dfad'] z | %22
 [Bgb]4!p!!>(! (g'a'/g'/ f'/e'/d'/c'/)!>)! | b [dgb]2 [dgb] [dgad'] z [dfad'] z | %24
 [Bdg]4 z2 [GBd]2 | [GAe]3 [GAe] .[Fcd]2 .[Fcd]2 | ([GBd]4 [EGc][DGB][CDA][B,DG]) | %27
 (G2 A)A (A2 B)B | [DGB]6 z2 | z [FA]2 [FA] [FAd]4 | z [G_B]2 [GB] [GBd]4 | %31
 z [G_B^c]2 [GBc] [Bce]4 | z [FA]2 [FA] [FAd]4 | z [fa]2 [fa] [fad']4 | z [g=b]2 [gb] [gbd']4 | %35
 z [g_b^c']2 [gbc'] [bc'e']4 | z [fa]2 [fa] [fad']4 | z =f2 f (f>gf) z | z d2 d (=f>gf) z | %39
 z =f2 f ((f>_bf)) z | z c2 c ((=f>gf)) z | z [Ac]2 [Ac] ([Acg]2 [Ac=f]2) | ([_Bd=f]3 d B2) z2 | %43
 z [_Bd]2 [Bd] [Bc=f] z [Acf] z | [_Bd]4!p!!>(! (_bc'/b/ a/g/=f/!pp!_e/)!>)! | %45
 z [_Bd]2 [Bd] [Bc=f] z [Acf] z | [_Bd]6 [=FBd]2 |!>(! [^Fcd]7/2 [Fcd]/ (d>_ed) z!>)! | %48
!<(! d7/2 d/!<)!!>(! (d>_ed)!>)! z | [Acd]7/2 [Acd]/ ([Acd]2 [G=Bd]2) | [FAd]6 z2 | %51
 z d2 d (d>ed) z | [Acd] z [GBd] z [FAd]4 | z e2 e (d>ed) z | %54
 z d2 d!<(! (d>e!<)!!p!!p!!>(!df)!>)! |!pp! g d2 d (d>ed) z | [Acd] z [GBd] z [FAd]4 | %57
 z e2 e (e>fe) z | z ^d2 d!<(! (f>gf) z!<)! |!p! z!>(! g2 g!>)! (b>e'^a) z | z [^df]2 [df] [dfb]4 | %61
 z [=DFA]2 [DFA] (([FAd]2 [DFA])) z | z [DGB]2 [DGB] (([GBd]2 [DGB])) z | %63
 z [GBd]2 [GBd] ([Gdg]2 [GB]) z | z [FA]2 [FA] [FAd]3 [Aa] | ([Bb]3 [Aa] [ee']2 [dd']2) | %66
 ([dd']3 [Bb] [Gg]2) z2 | z [dgb]2 [dgb] [dgad'] z [dfad'] z | %68
 [Bgb]4!>(! (g'a'/g'/ f'/e'/d'/c'/)!>)! | .b [dgb]2 [dgb] [dgad'] z [dfad'] z | [Bdg]4 (Bd)(dg) | %71
 z [GA]2 [GA] [GAg]4 | z [GB]2 [GB] [GBg]4 | z!<(! [Gce]2 [Gce]!<)!!>(! [Gd=fg]4!>)! | %74
 z [Gce]2!mp! [Gce] [Gceg]4 | z [Gce]2 [Gce] [Gceg]4 | z [^Gde]2 [Gde] [Gde^g]4 | %77
 z [A^ce]2 [Ace] [Acea]4 | z [Bde]2 [Bde] [Bdeb]4 | z [A^ce]2 [Ace] [Acea]4 | %80
 z [^Gde]2 [Gde] [Gde^g]4 | z [A=ce]2!<(! [Ace] [Acea]4!<)! | %82
!>(! z [dgb]2 [dgb]!>)! [dgad'] z [dfad'] z | [Bgb]4!>(! (g'a'/g'/ f'/e'/d'/c'/)!>)! | %84
 .b [dgb]2 [dgb] [dgad'] z [dfad'] z | [Bdg]4 (Bd)(dg) | z [GA]2 [GA] [GAg]4 | %87
 z [GB]2 [GB] [GBg]4 | z!<(! [Gc_e]2 [Gce]!<)!!>(! [_B=f_a_b]4!>)! | z [G_B_e]2 [GBe] [GBeg]4 | %90
 z [G_B_e]2 [GBe] [GBeg]4 | z [Acd]2 [Acd] [Acda]4 | z [G=Bd]2 [GBd] [GBdg]4 | %93
 z [Acd]2 [Acd] [Acda]4 | z [GBd]2 [GBd] [GBdg]4 | z [Bde]2!<(! [Bde] [Bdeb]4!<)! | %96
 z [Ace]2 [Ace] [Acea]4 | z [dgb]2 [dgb] [dgad'] z [dfad'] z | %98
 [Bgb]4!>(! (g'a'/g'/ f'/e'/d'/c'/)!>)! | .b [dgb]2 [dgb] [dgad'] z [dfad'] z | %100
 z [DGB]2 [DGB] [DGd] z [DGd] z | z [DFc]2 [DFc] [DFcd] z [DFcd] z | %102
 z [DGB]2 [DGB] [Gdg] z [Gdg] z | z [DFA]2 [DFA] [DGB] z [DGB] z | %104
 z [DFA]2 [DFA] !fermata![B,DG]4 |] %105
V:3
!p! .G,,(B,[D,G,]B,) .B,,(B,[D,G,]B,) | .A,,(C[D,F,]C) .D,,(C[D,A,]C) | %2
 .G,,(B,[D,G,]B,) .B,,(B,[D,G,]B,) | D,,A,[D,F,]A, G,,B,[D,G,]B, | D,,A,[D,F,]A, G,,B,[D,G,]B, | %5
!pp! G,,B,[D,G,]B, B,,B,[D,G,]B, | .F,.D.G,.D .D,(D[F,A,]D) | C,E[G,A,]E D,D[F,A,]D | %8
 .G,,(D[G,B,]D) (B,DA,D) | G,,B,[D,G,]B, B,,B,[D,G,]B, | .F,.D.G,.D .D,(D[F,A,]D) | %11
 C,E[G,A,]E A,,E[F,C]E | B,,^D[F,B,]D B,,D[F,B,]D | B,,E[G,B,]E B,,E[G,^C]E | %14
 B,,^D[F,B,]D B,,D[F,B,]D | .=C,(A,[=D,F,]A,) .C,(A,[D,F,]A,) | B,,B,[D,G,]B, B,,B,[D,G,]B, | %17
 G,,B,[D,G,]B, B,,B,[D,G,]B, | D,,A,[D,F,]A, D,,A,[D,F,]A, | C,D[F,A,]D C,D[F,A,]D | %20
 B,,D[G,B,]D B,,D[G,B,]D | D,D[G,B,]D [D,G,A,]D[D,F,A,]D | E,B,G,B, B,,B,[D,G,]B, | %23
!pp! D,D[G,B,]D [D,G,A,]D[D,F,A,]D | G,,B,[D,G,]B, G,,B,[D,G,]B, | %25
!pp!!>(! C,!>)!!ppp!EA,E D,D[A,C]D | G,,D[G,B,]D G,,G,D,G, | C,,E,C,E, D,,F,D,F, | %28
 G,,B,[D,G,]B, G,,B,[D,G,]B, |!pp! D,D[F,A,]D D,D[F,A,]D | D,D[G,_B,]D D,D[G,B,]D | %31
 D,^C[G,_B,]C D,C[G,B,]C | D,D[F,A,]D D,D[F,A,]D | D,D[F,A,]D D,D[F,A,]D | D,D[G,B,]D D,D[G,B,]D | %35
 D,^C[G,_B,]C D,C[G,B,]C | D,D[F,A,]D D,D[F,A,]D |"^cresc." _B,,D[=F,_B,]D B,,_E[F,C]E | %38
 _B,,D[=F,_B,]D B,,D[F,B,]D | A,,_E[=F,C]E _B,,D[F,_B,]D | =F,,C[=F,A,]C F,,C[F,A,]!mf!C | %41
!p! ._E,(C[=F,A,]C) .E,(C[F,A,]C) | D,D[=F,_B,]D D,D[F,B,]D | =F,=F[_B,D]F [F,B,C]F[F,A,C]F | %44
 .G,(D_B,D) _E,_E[G,B,]E | =F,=F[_B,D]F [F,B,C]F[F,A,C]F | ._B,,(D[=F,_B,]D) .B,,(D[F,B,]D) | %47
 A,,D[A,C]D A,,D[A,C]D |!pp! G,,D[G,C]D G,,D[G,C]!p!D | F,,D[A,C]"^dim."D G,,D[G,=B,]D | %50
 D,D[F,A,]D D,D[F,A,]D |!pp! G,,B,[D,G,]B, B,,B,[D,G,]B, | F,DG,D D,D[F,A,]D | %53
 C,E[G,A,]E D,D[F,A,]D | G,,D[G,B,]D B,DA,D | G,,B,[D,G,]B, B,,B,[D,G,]B, | F,DG,D D,D[F,A,]D | %57
 C,E[G,A,]E A,,E[F,C]E | B,,^D[F,B,]D B,,D[F,B,]D | B,,E[G,B,]E!pp! B,,E[G,^C]E | %60
 B,,^D[F,B,]D B,,D[F,B,]D |!pp! =C,A,[=D,F,]A, C,A,[D,F,]A, | B,,B,[D,G,]B, B,,B,[D,G,]B, | %63
 G,,B,[D,G,]B, B,,B,[D,G,]B, | D,D[F,A,]D D,D[F,A,]D | C,D[F,A,]D C,D[F,A,]D | %66
 B,,D[G,B,]D B,,D[G,B,]D | D,D[G,B,]D [D,G,A,]D[D,F,A,]D | E,B,G,B,!p! B,,B,[D,G,]B, | %69
!pp! D,D[G,B,]D [D,G,A,]D[D,F,A,]D | G,,B,[D,G,]B, G,,D[G,B,]D | G,,E[G,C]E G,,E[G,C]E | %72
 G,,"^cresc."=F[G,D]F G,,F[G,D]F | G,,E[G,C]E G,,D[G,B,]D | C,E[G,C]E"^dim." C,E[G,C]E | %75
 C,E[G,C]E C,E[G,C]E |!pp! B,,D[E,^G,]D B,,D[E,G,]D | A,,^C[E,A,]C A,,C[E,A,]C | %78
 ^G,,D[E,B,]D G,,D[E,B,]D | A,,^C[E,A,]C A,,C[E,A,]C | B,,D[E,^G,]D B,,D[E,G,]D | %81
 =C,C[E,A,]C C,C[E,A,]C |!p! D,D[G,B,]D!pp! [D,G,A,]D[D,F,A,]D | E,B,G,B,!p! B,,B,[D,G,]B, | %84
!pp! D,D[G,B,]D [D,G,A,]D[D,F,A,]D | G,,B,[D,G,]B, G,,D[G,B,]D | G,,E[G,C]E G,,E[G,C]E | %87
 G,,"^cresc."=F[G,D]F G,,F[G,D]F | C,_E[G,C]E!mf! _B,,=F[_B,D]F | %89
!mp! _E,_E[G,_B,]"^dim."E E,E[G,B,]E | _E,_E[G,_B,]E E,E[G,B,]E |!pp! ^F,,C[D,A,]C F,,C[D,A,]C | %92
 G,,=B,[D,G,]B, G,,B,[D,G,]B, | F,,C[D,A,]C F,,C[D,A,]C | G,,B,[D,G,]B, G,,B,[D,G,]B, | %95
 ^G,,D[E,B,]!pp!D G,,D[E,B,]!mp!D | A,,C!mp!!>(![E,A,]C C,C[E,A,]!pp!C!>)! | %97
 D,D[G,B,]D [D,G,A,]D[D,F,A,]D | E,B,G,B,!p! B,,B,[D,G,]B, |!pp! D,D[G,B,]D [D,G,A,]D[D,F,A,]D | %100
!p! G,,B,[D,G,]B, B,,B,[D,G,]B, | A,,C[D,F,]C D,,C[D,A,]C | G,,B,[D,G,]B, B,,B,[D,G,]B, | %103
 D,,A,[D,F,]A,"^dim." G,,B,[D,G,]B, | D,,A,[D,F,]A,!pp! !fermata![G,,D,G,]4 |] %105
V:4
 x8 | x8 | x8 | x8 | x8 | x [GB]2 [GB] [GB]3 x | x8 | x [GA]2 [GA] [FA]3 x | x [GB]2 [GB] d2 c2 | %9
 [Bd] [GB]2 [GB] [GB]3 x | x8 | x [GA]2 [GA] [Fc]3 x | x [FB]2 [FB] [B^d]3 x | %13
 x [Be]2 [Be] [eg]3 x | x8 | x8 | x8 | x8 | x8 | x8 | x8 | x8 | x8 | x8 | x8 | x8 | x8 | %27
 [CE]3 [CE] [DF]3 [DF] | x8 | x8 | x8 | x8 | x8 | x8 | x8 | x8 | x8 | x [_Bd]2 [Bd] [A_e]3 x | %38
 x [=F_B]2 [FB] [Bd]3 x | x [c_e]2 [ce] [_Bd]3 x | x A2 A [Ac]3 x | x8 | x8 | x8 | x8 | x8 | x8 | %47
 x4 [Fc]3 x | [Gc]7/2 [Gc]/ [Gc]3 x | x8 | x8 | x [GB]2 [GB] [GB]3 x | x8 | x [GA]2 [GA] [FA]3 x | %54
 x [GB]2 [GB] d2 c2 | [Bd] [GB]2 [GB] [GB]3 x | x8 | x [GA]2 [GA] [Fc]3 x | x [FB]2 [FB] [B^d]3 x | %59
 x [Be]2 [Be] [eg]3 x | x8 | x8 | x8 | x8 | x8 | x8 | x8 | x8 | x8 | x8 | x8 | x8 | x8 | x8 | x8 | %75
 x8 | x8 | x8 | x8 | x8 | x8 | x8 | x8 | x8 | x8 | x8 | x8 | x8 | x8 | x8 | x8 | x8 | x8 | x8 | %94
 x8 | x8 | x8 | x8 | x8 | x8 | x8 | x8 | x8 | x8 | x8 |] %105

